X: 64
T: No_159_Love_Song.krn
%%abc-version 2.0
%%abcx-abcm2ps-target-version 5.9.1 (29 Sep 2008)
%%abc-creator hum2abc beta
%%abcx-conversion-date 2020/08/10 18:54:57
%%humdrum-veritas 3765545091
%%humdrum-veritas-data 119537585
%%linebreak <none>
%%barnumbers 0
L: 1/16
M: 2/4
K: D clef=treble
[K:clef=treble][M:2/4]F4F3F | 
F8 | 
F4EB,2B, | 
B,8 | 
F4E3D | 
E8 | 
F4EB,2B, | 
B,8 | 
D4FB,2B,[K:clef=bass] | 
[K:clef=bass]B,6F,2 | 
A,4F,3E, | 
D,8 | 
F,4F,3F, | 
E,8 | 
F,4E,3B,, | 
B,,8 |]  


